build/finance/CardTSolid.svg

<svg xmlns="http://www.w3.org/2000/svg" fill="none" viewBox="0 0 24 24" focusable="false"><path d="M0 0H24V24H0z"/><path fill="#74767B" fill-rule="evenodd" d="M6 5C4.34315 5 3 6.34315 3 8L3 8.27051L21 8.27051L21 8C21 6.34315 19.6569 5 18 5L6 5ZM21 9.57051L3 9.57051L3 16C3 17.6569 4.34315 19 6 19L18 19C19.6569 19 21 17.6569 21 16L21 9.57051ZM9.99998 11.1864C9.64099 11.1864 9.34998 11.4774 9.34998 11.8364C9.34998 12.1954 9.64099 12.4864 9.99998 12.4864L11.35 12.4864L11.35 16.7464C11.35 17.1053 11.641 17.3964 12 17.3964C12.359 17.3964 12.65 17.1053 12.65 16.7464L12.65 12.4864L14 12.4864C14.359 12.4864 14.65 12.1954 14.65 11.8364C14.65 11.4774 14.359 11.1864 14 11.1864L9.99998 11.1864Z"/></svg>

<svg xmlns="http://www.w3.org/2000/svg" fill="none" viewBox="0 0 24 24" focusable="false"><path fill="#74767B" fill-rule="evenodd" d="M6 5C4.34 5 3 6.34 3 8v.27h18V8c0-1.66-1.35-3-3-3zm15 4.57H3V16c0 1.65 1.34 3 3 3h12c1.65 0 3-1.35 3-3zM9.99 11.18c-.35 0-.65.29-.65.65s.3.65.65.65h1.36v4.26c0 .36.29.65.65.65.35 0 .65-.29.65-.65v-4.26H14c.35 0 .65-.29.65-.65s-.3-.65-.65-.65z"/></svg>
